symbols/web/read_more/materialsymbolsoutlined/read_more_wght300_40px.svg

<svg xmlns="http://www.w3.org/2000/svg" height="40" width="40"><path d="M12.208 28.208 10.75 26.75l5.667-5.708H3.75v-2.084h12.667L10.75 13.25l1.458-1.458L20.417 20Zm10.292-.5v-2.083h13.75v2.083Zm0-13.333v-2.083h13.75v2.083Zm5 6.667v-2.084h8.75v2.084Z"/></svg>

<svg xmlns="http://www.w3.org/2000/svg" height="40" width="40"><path d="M12.208 28.208 10.75 26.75 16.417 21.042H3.75V18.958H16.417L10.75 13.25L12.208 11.792L20.417 20ZM22.5 14.375V12.292H36.25V14.375ZM22.5 27.708V25.625H36.25V27.708ZM27.5 21.042V18.958H36.25V21.042Z"/></svg>
